svg/fluentui-system-icons/ic_fluent_hourglass_24_filled.svg

<svg width="24" height="24" viewBox="0 0 24 24" fill="none" xmlns="http://www.w3.org/2000/svg">
<path d="M17.25 4.5H6.75C6.6837 4.5 6.62011 4.52634 6.57322 4.57322C6.52634 4.62011 6.5 4.6837 6.5 4.75V5.35C6.50495 5.87358 6.63672 6.38816 6.88402 6.84968C7.13132 7.31119 7.4868 7.7059 7.92 8L10 9.48C10.4205 9.758 10.7699 10.1309 11.02 10.5686C11.5436 11.4848 11.5436 12.5152 11.02 13.4314C10.7699 13.8691 10.4205 14.242 10 14.52L7.92 16C7.4868 16.2941 7.13132 16.6888 6.88402 17.1503C6.63672 17.6118 6.50495 18.1264 6.5 18.65V19.25C6.5 19.3163 6.52634 19.3799 6.57322 19.4268C6.62011 19.4737 6.6837 19.5 6.75 19.5H17.25C17.3163 19.5 17.3799 19.4737 17.4268 19.4268C17.4737 19.3799 17.5 19.3163 17.5 19.25V18.65C17.4951 18.1264 17.3633 17.6118 17.116 17.1503C16.8687 16.6888 16.5132 16.2941 16.08 16L14 14.52C13.5795 14.242 13.2301 13.8691 12.98 13.4314C12.4564 12.5152 12.4564 11.4848 12.98 10.5686C13.2301 10.1309 13.5795 9.758 14 9.48L16.08 8C16.5132 7.7059 16.8687 7.31119 17.116 6.84968C17.3633 6.38816 17.4951 5.87358 17.5 5.35V4.75C17.5 4.6837 17.4737 4.62011 17.4268 4.57322C17.3799 4.52634 17.3163 4.5 17.25 4.5Z" fill="#212121"/>
</svg>

<svg xmlns="http://www.w3.org/2000/svg" width="24" height="24"><path d="M17.25 4.5H6.75a.25.25 0 0 0-.25.25v.6A3.24 3.24 0 0 0 7.92 8L10 9.48c.42.278.77.65 1.02 1.089a2.805 2.805 0 0 1 0 2.862c-.25.438-.6.811-1.02 1.089L7.92 16a3.24 3.24 0 0 0-1.42 2.65v.6a.25.25 0 0 0 .25.25h10.5a.25.25 0 0 0 .25-.25v-.6A3.24 3.24 0 0 0 16.08 16L14 14.52a3.22 3.22 0 0 1-1.02-1.089 2.805 2.805 0 0 1 0-2.862c.25-.438.6-.811 1.02-1.089L16.08 8a3.24 3.24 0 0 0 1.42-2.65v-.6a.25.25 0 0 0-.25-.25Z"/></svg>
